resources/svg/regular/credit-card-front.svg

<svg xmlns="http://www.w3.org/2000/svg" fill="currentColor" stroke="none" viewBox="0 0 24 24"><path d="M20 4H4c-1.103 0-2 .897-2 2v12c0 1.103.897 2 2 2h16c1.103 0 2-.897 2-2V6c0-1.103-.897-2-2-2zM4 18V6h16l.001 12H4z"/><path d="M6.5 11h3a.5.5 0 0 0 .5-.5v-2a.5.5 0 0 0-.5-.5h-3a.5.5 0 0 0-.5.5v2a.5.5 0 0 0 .5.5zM6 14h6v2.001H6zm7 0h5v2.001h-5z"/></svg>

<svg xmlns="http://www.w3.org/2000/svg" fill="currentColor" stroke="none" viewBox="0 0 24 24"><path d="M20,4H4C2.897,4,2,4.897,2,6v12c0,1.103,0.897,2,2,2h16c1.103,0,2-0.897,2-2V6C22,4.897,21.103,4,20,4z M4,18V6h16 l0.001,12H4z"/><path d="M6.5 11h3c.276 0 .5-.224.5-.5v-2C10 8.224 9.776 8 9.5 8h-3C6.224 8 6 8.224 6 8.5v2C6 10.776 6.224 11 6.5 11zM6 14H12V16.001H6zM13 14H18V16.001H13z"/></svg>
